svg/background-1.svg

<svg width="1225" height="1044" viewBox="0 0 1225 1044" fill="none" xmlns="http://www.w3.org/2000/svg">
<path fill-rule="evenodd" clip-rule="evenodd" d="M687.164 -52.1104C797.121 -46.0481 874.762 48.8061 962.354 115.492C1051.39 183.276 1168.92 232.31 1201.34 339.346C1233.88 446.762 1154.38 550.426 1127.06 659.278C1095.34 785.658 1043.56 868.265 938.534 945.507C833.92 1022.44 773.528 1047.19 648.762 1011.03C548.029 981.83 422.135 928.283 331.181 876.095C217.328 810.768 112.242 783.161 50.1826 667.574C-12.6884 550.475 22.5988 395.318 89.9453 280.739C152.486 174.337 285.265 144.224 393.128 84.1084C489.843 30.206 576.58 -58.2073 687.164 -52.1104Z" fill="#E1CFDB"/>
</svg>

<svg width="1225" height="1044" viewBox="0 0 1225 1044" fill="none" xmlns="http://www.w3.org/2000/svg"><path fill-rule="evenodd" clip-rule="evenodd" d="M687.164-52.11c109.957 6.062 187.598 100.916 275.19 167.602 89.036 67.784 206.566 116.818 238.986 223.854 32.54 107.416-46.96 211.08-74.28 319.932-31.72 126.38-83.5 208.987-188.526 286.229-104.614 76.933-165.006 101.683-289.772 65.523-100.733-29.2-226.627-82.747-317.581-134.935-113.853-65.327-218.939-92.934-280.998-208.521-62.871-117.099-27.584-272.256 39.762-386.835 62.541-106.402 195.32-136.515 303.183-196.63C489.843 30.205 576.58-58.208 687.164-52.112z" fill="#E1CFDB"/></svg>
